src/assets/logos/iadvize.svg

<svg fill="none" height="101" viewBox="0 0 440 101" width="440" xmlns="http://www.w3.org/2000/svg"><path d="m50.4443 0c27.8565.0000214 50.4447 22.5879 50.4447 50.4443 0 27.8565-22.5882 50.4447-50.4447 50.4447-27.8564 0-50.44427861-22.5882-50.4443-50.4447 0-27.8564 22.5879-50.4443 50.4443-50.4443zm123.3087 35.0303c5.185 0 10.004 1.5666 14.012 4.25v-2.5684c0-.3081.252-.5604.56-.5605h10.089c.308 0 .56.2524.561.5605v47.082c-.001.3081-.253.5606-.561.5606h-5.044c-2.325 0-4.319-1.4143-5.168-3.4297-4.093 2.8663-9.074 4.5497-14.449 4.5498-13.928 0-25.223-11.2934-25.223-25.2217 0-13.9282 11.295-25.2226 25.223-25.2226zm83.513-18.4961c.308 0 .56.2524.56.5605v66.6992c0 .3082-.252.5606-.56.5606h-5.044c-2.325 0-4.319-1.4143-5.168-3.4297-4.093 2.8663-9.074 4.5498-14.45 4.5498-13.928 0-25.222-11.2934-25.222-25.2217 0-13.9282 11.294-25.2226 25.222-25.2226 5.185 0 10.004 1.5666 14.012 4.25v-22.1856c0-.308.253-.5604.561-.5605zm154.626 18.6504c15.217-1.6815 28.094 10.1873 28.094 25.0683h.014c0 1.5694-.154 3.0968-.42 4.5821-.056.2662-.294.4618-.56.4619h-36.46c-.407 0-.687.4208-.519.7851 2.2 4.8203 7.063 8.1836 12.724 8.1836 2.368-.0001 4.596-.5891 6.557-1.626 2.228-1.1768 4.946-.8683 6.726.9112l4.134 4.1338c.224.2242.224.5884 0 .8125-4.526 4.3157-10.664 6.9774-17.417 6.9775-14.881 0-26.75-12.8766-25.069-28.0937 1.275-11.5742 10.635-20.9212 22.196-22.1963zm-282.979 2.2988c0-.3923.393-.6587.757-.5186 1.513.5605 3.139.8682 4.849.8682 1.709 0 3.334-.3078 4.847-.8682.365-.1261.757.1263.757.5186v46.2959c0 .3223-.252.5889-.561.5889h-10.075c-.308-.0003-.574-.2803-.574-.6162zm190.567 0c0-.3923.393-.6587.757-.5186 1.514.5605 3.14.8682 4.849.8682 1.709-.0001 3.334-.3078 4.848-.8682.364-.1261.756.1263.756.5186v46.2959c0 .3223-.252.5889-.56.5889h-10.075c-.308-.0003-.574-.2803-.575-.6162zm-48.047-1.332c2.269.0001 4.329 1.3735 5.184 3.4892l12.036 29.5664 12.037-29.5664c.855-2.1017 2.901-3.4892 5.185-3.4892h7.16c.392.0002.673.4072.519.7715l-19.156 47.081c-.084.2101-.294.3506-.518.3506h-10.453c-.224-.0001-.435-.1405-.519-.3506l-19.154-47.081c-.154-.3644.126-.7715.518-.7715zm110.262 0c.308 0 .561.2524.561.5605v2.4248c0 1.8775-.631 3.6994-1.794 5.1846l-23.498 29.9443h26.413c.308.0002.561.2524.561.5606v8.9677c-.001.3081-.253.5604-.561.5606h-42.037c-.308 0-.561-.2525-.561-.5606v-2.4248c0-1.8775.631-3.6993 1.794-5.1845l23.498-29.9444h-26.413c-.308 0-.56-.2523-.56-.5605v-8.9678c0-.3081.252-.5605.56-.5605zm-313.2731 27.3945c-5.5769.6025-11.6441.9248-17.9776.9248-6.3334 0-12.3867-.3363-17.9775-.9248-3.1107-.3363-4.9187 3.3068-2.8311 5.6328 5.1145 5.703 12.5414 9.2901 20.8086 9.2901 8.2673-.0001 15.6801-3.5871 20.8086-9.2901 2.0876-2.312.2796-5.9691-2.831-5.6328zm105.3311-17.3057c-7.735 0-14.013 6.2779-14.013 14.0127s6.278 14.0127 14.013 14.0127c7.735-.0002 14.012-6.278 14.012-14.0127 0-7.7346-6.277-14.0125-14.012-14.0127zm58.851 0c-7.734 0-14.012 6.2779-14.012 14.0127s6.278 14.0127 14.012 14.0127c7.735-.0001 14.012-6.278 14.012-14.0127s-6.277-14.0125-14.012-14.0127zm182.161 0c-5.647 0-10.51 3.3634-12.724 8.1836-.168.3643.112.7842.519.7842h24.409c.406 0 .686-.4199.518-.7842-2.2-4.8201-7.076-8.1834-12.722-8.1836zm-280.246-30.8271c4.643.0002 8.407 3.7651 8.407 8.4082 0 4.6429-3.764 8.407-8.407 8.4072-4.644 0-8.408-3.7641-8.409-8.4072 0-4.6433 3.765-8.4082 8.409-8.4082zm190.567 0c4.643.0002 8.407 3.7651 8.407 8.4082 0 4.6429-3.764 8.407-8.407 8.4072-4.643 0-8.408-3.7641-8.408-8.4072 0-4.6433 3.765-8.4082 8.408-8.4082z" fill="#3be1a4"/></svg>

<svg width="440" height="101" viewBox="0 0 440 101" fill="none" xmlns="http://www.w3.org/2000/svg">
<path d="M50.4443 0C78.3008 2.13976e-05 100.889 22.5879 100.889 50.4443C100.889 78.3008 78.3008 100.889 50.4443 100.889C22.5879 100.889 2.13948e-05 78.3008 0 50.4443C0 22.5879 22.5879 0 50.4443 0ZM173.753 35.0303C178.938 35.0303 183.757 36.5969 187.765 39.2803V36.7119C187.765 36.4038 188.017 36.1515 188.325 36.1514H198.414C198.722 36.1514 198.974 36.4038 198.975 36.7119V83.7939C198.974 84.102 198.722 84.3545 198.414 84.3545H193.37C191.045 84.3545 189.051 82.9402 188.202 80.9248C184.109 83.7911 179.128 85.4745 173.753 85.4746C159.825 85.4746 148.53 74.1812 148.53 60.2529C148.53 46.3247 159.825 35.0303 173.753 35.0303ZM257.266 16.5342C257.574 16.5342 257.826 16.7866 257.826 17.0947V83.7939C257.826 84.1021 257.574 84.3545 257.266 84.3545H252.222C249.897 84.3545 247.903 82.9402 247.054 80.9248C242.961 83.7911 237.98 85.4746 232.604 85.4746C218.676 85.4746 207.382 74.1812 207.382 60.2529C207.382 46.3247 218.676 35.0303 232.604 35.0303C237.789 35.0303 242.608 36.5969 246.616 39.2803V17.0947C246.616 16.7867 246.869 16.5343 247.177 16.5342H257.266ZM411.892 35.1846C427.109 33.5031 439.986 45.3719 439.986 60.2529H440C440 61.8223 439.846 63.3497 439.58 64.835C439.524 65.1012 439.286 65.2968 439.02 65.2969H402.56C402.153 65.2969 401.873 65.7177 402.041 66.082C404.241 70.9023 409.104 74.2656 414.765 74.2656C417.133 74.2655 419.361 73.6765 421.322 72.6396C423.55 71.4628 426.268 71.7713 428.048 73.5508L432.182 77.6846C432.406 77.9088 432.406 78.273 432.182 78.4971C427.656 82.8128 421.518 85.4745 414.765 85.4746C399.884 85.4746 388.015 72.598 389.696 57.3809C390.971 45.8067 400.331 36.4597 411.892 35.1846ZM128.913 37.4834C128.913 37.0911 129.306 36.8247 129.67 36.9648C131.183 37.5253 132.809 37.833 134.519 37.833C136.228 37.833 137.853 37.5252 139.366 36.9648C139.731 36.8387 140.123 37.0911 140.123 37.4834V83.7793C140.123 84.1016 139.871 84.3682 139.562 84.3682H129.487C129.179 84.3679 128.913 84.0879 128.913 83.752V37.4834ZM319.48 37.4834C319.48 37.0911 319.873 36.8247 320.237 36.9648C321.751 37.5253 323.377 37.833 325.086 37.833C326.795 37.8329 328.42 37.5252 329.934 36.9648C330.298 36.8387 330.69 37.0911 330.69 37.4834V83.7793C330.69 84.1016 330.438 84.3682 330.13 84.3682H320.055C319.747 84.3679 319.481 84.0879 319.48 83.752V37.4834ZM271.433 36.1514C273.702 36.1515 275.762 37.5249 276.617 39.6406L288.653 69.207L300.69 39.6406C301.545 37.5389 303.591 36.1514 305.875 36.1514H313.035C313.427 36.1516 313.708 36.5586 313.554 36.9229L294.398 84.0039C294.314 84.214 294.104 84.3545 293.88 84.3545H283.427C283.203 84.3544 282.992 84.214 282.908 84.0039L263.754 36.9229C263.6 36.5585 263.88 36.1514 264.272 36.1514H271.433ZM381.695 36.1514C382.003 36.1514 382.256 36.4038 382.256 36.7119V39.1367C382.256 41.0142 381.625 42.8361 380.462 44.3213L356.964 74.2656H383.377C383.685 74.2658 383.938 74.518 383.938 74.8262V83.7939C383.937 84.102 383.685 84.3543 383.377 84.3545H341.34C341.032 84.3545 340.779 84.102 340.779 83.7939V81.3691C340.779 79.4916 341.41 77.6698 342.573 76.1846L366.071 46.2402H339.658C339.35 46.2402 339.098 45.9879 339.098 45.6797V36.7119C339.098 36.4038 339.35 36.1514 339.658 36.1514H381.695ZM68.4219 63.5459C62.845 64.1484 56.7778 64.4707 50.4443 64.4707C44.1109 64.4707 38.0576 64.1344 32.4668 63.5459C29.3561 63.2096 27.5481 66.8527 29.6357 69.1787C34.7502 74.8817 42.1771 78.4688 50.4443 78.4688C58.7116 78.4687 66.1244 74.8817 71.2529 69.1787C73.3405 66.8667 71.5325 63.2096 68.4219 63.5459ZM173.753 46.2402C166.018 46.2402 159.74 52.5181 159.74 60.2529C159.74 67.9877 166.018 74.2656 173.753 74.2656C181.488 74.2654 187.765 67.9876 187.765 60.2529C187.765 52.5183 181.488 46.2404 173.753 46.2402ZM232.604 46.2402C224.87 46.2402 218.592 52.5181 218.592 60.2529C218.592 67.9877 224.87 74.2656 232.604 74.2656C240.339 74.2655 246.616 67.9876 246.616 60.2529C246.616 52.5182 240.339 46.2404 232.604 46.2402ZM414.765 46.2402C409.118 46.2402 404.255 49.6036 402.041 54.4238C401.873 54.7881 402.153 55.208 402.56 55.208H426.969C427.375 55.208 427.655 54.7881 427.487 54.4238C425.287 49.6037 420.411 46.2404 414.765 46.2402ZM134.519 15.4131C139.162 15.4133 142.926 19.1782 142.926 23.8213C142.926 28.4642 139.162 32.2283 134.519 32.2285C129.875 32.2285 126.111 28.4644 126.11 23.8213C126.11 19.178 129.875 15.4131 134.519 15.4131ZM325.086 15.4131C329.729 15.4133 333.493 19.1782 333.493 23.8213C333.493 28.4642 329.729 32.2283 325.086 32.2285C320.443 32.2285 316.678 28.4644 316.678 23.8213C316.678 19.178 320.443 15.4131 325.086 15.4131Z" fill="#3BE1A4"/>
</svg>
